packages/ui-icons/svg/Solid/sis-synced.svg

<svg viewBox="0 0 1920 1920" version="1.1" xmlns="http://www.w3.org/2000/svg">
    <path d="M960,0 C1489.28,0 1920,430.613333 1920,960 C1920,1489.38667 1489.28,1920 960,1920 C430.72,1920 0,1489.38667 0,960 C0,720.96 88.64,494.08 244.48,320 L244.48,320 L53.3333333,320 L53.3333333,106.666667 L640,106.666667 L640,693.333333 L426.666667,693.333333 L426.666667,439.253333 C291.733333,577.386667 213.333333,762.986667 213.333333,960 C213.333333,1371.62667 548.266667,1706.66667 960,1706.66667 C1371.73333,1706.66667 1706.66667,1371.62667 1706.66667,960 C1706.66667,548.373333 1371.73333,213.333333 960,213.333333 L960,213.333333 Z M1257.93067,690.261333 L1408.75733,841.194667 L921.930667,1328.02133 L617.930667,1023.91467 L768.757333,873.088 L921.930667,1026.368 L1257.93067,690.261333 Z" stroke="none" stroke-width="1" fill-rule="evenodd"/>
</svg>

<svg viewBox="0 0 1920 1920" xmlns="http://www.w3.org/2000/svg">
    <path d="M960 0c529.28 0 960 430.613 960 960s-430.72 960-960 960S0 1489.387 0 960c0-239.04 88.64-465.92 244.48-640H53.333V106.667H640v586.666H426.667v-254.08C291.733 577.387 213.333 762.987 213.333 960c0 411.627 334.934 746.667 746.667 746.667s746.667-335.04 746.667-746.667S1371.733 213.333 960 213.333Zm297.93 690.261 150.827 150.934-486.826 486.826-304-304.106 150.826-150.827 153.174 153.28 336-336.107Z" fill-rule="evenodd"/>
</svg>
